img/compaines/Vector.svg

<svg width="14" height="14" viewBox="0 0 14 14" fill="none" xmlns="http://www.w3.org/2000/svg">
<path d="M7.0717 0.407471C3.40503 0.407471 0.405029 3.42257 0.405029 7.1077C0.405029 10.7928 3.40503 13.8079 7.0717 13.8079C10.7384 13.8079 13.7384 10.7928 13.7384 7.1077C13.7384 3.42257 10.7384 0.407471 7.0717 0.407471ZM9.93836 9.25177L6.40503 7.30871V3.75759H7.40503V6.70569L10.405 8.38074L9.93836 9.25177Z" fill="white"/>
</svg>

<svg width="14" height="14" fill="none" xmlns="http://www.w3.org/2000/svg"><path d="M7.072.407C3.405.407.405 3.423.405 7.107c0 3.686 3 6.7 6.667 6.7 3.666 0 6.666-3.014 6.666-6.7 0-3.684-3-6.7-6.666-6.7zm2.866 8.845L6.405 7.309V3.758h1v2.948l3 1.675-.467.87z" fill="#fff"/></svg>
